icons/laptop-codeB.svg

<svg width="24" height="24" viewBox="0 0 24 24" fill="none" xmlns="http://www.w3.org/2000/svg">
<path d="M20.3001 17.0501H3.6001V6.85007C3.6001 5.25007 4.9001 3.95007 6.5001 3.95007H17.5001C19.1001 3.95007 20.4001 5.25007 20.4001 6.85007V17.0501H20.3001Z" fill="black"/>
<path fill-rule="evenodd" clip-rule="evenodd" d="M6.5001 4.70007C5.31431 4.70007 4.3501 5.66429 4.3501 6.85007V16.3001H19.6501V6.85007C19.6501 5.66429 18.6859 4.70007 17.5001 4.70007H6.5001ZM2.8501 6.85007C2.8501 4.83586 4.48588 3.20007 6.5001 3.20007H17.5001C19.5143 3.20007 21.1501 4.83586 21.1501 6.85007V17.8001H2.8501V6.85007Z" fill="black"/>
<path fill-rule="evenodd" clip-rule="evenodd" d="M3.5 17.8C3.11421 17.8 2.75 18.1643 2.75 18.55C2.75 18.9358 3.11421 19.3 3.5 19.3H20.5C20.8858 19.3 21.25 18.9358 21.25 18.55C21.25 18.1643 20.8858 17.8 20.5 17.8H3.5ZM1.25 18.55C1.25 17.3358 2.28579 16.3 3.5 16.3H20.5C21.7142 16.3 22.75 17.3358 22.75 18.55C22.75 19.7643 21.7142 20.8 20.5 20.8H3.5C2.28579 20.8 1.25 19.7643 1.25 18.55Z" fill="black"/>
<path fill-rule="evenodd" clip-rule="evenodd" d="M13.2883 8.50176C13.5911 8.21913 14.0657 8.2355 14.3483 8.53831L15.7408 10.0303C16.0054 10.2995 16.1751 10.6545 16.1751 11.0501C16.1751 11.4507 16.0009 11.8099 15.7304 12.0804L14.3304 13.4804C14.0375 13.7733 13.5626 13.7733 13.2697 13.4804C12.9768 13.1875 12.9768 12.7126 13.2697 12.4197L14.6401 11.0493L13.2518 9.56179C12.9691 9.25898 12.9855 8.78439 13.2883 8.50176Z" fill="white"/>
<path fill-rule="evenodd" clip-rule="evenodd" d="M10.6304 8.51972C10.9233 8.81261 10.9233 9.28749 10.6304 9.58038L9.26003 10.9508L10.6484 12.4383C10.931 12.7411 10.9146 13.2157 10.6118 13.4983C10.309 13.781 9.83443 13.7646 9.55181 13.4618L8.15933 11.9698C7.89478 11.7006 7.7251 11.3456 7.7251 10.95C7.7251 10.5494 7.89925 10.1902 8.16977 9.91972L9.56977 8.51972C9.86266 8.22683 10.3375 8.22683 10.6304 8.51972Z" fill="white"/>
</svg>

<svg xmlns="http://www.w3.org/2000/svg" fill="none" viewBox="0 0 24 24">
  <path fill="#000" d="M20.3 17.05H3.6V6.85c0-1.6 1.3-2.9 2.9-2.9h11c1.6 0 2.9 1.3 2.9 2.9v10.2h-.1Z"/>
  <path fill="#000" fill-rule="evenodd" d="M6.5 4.7c-1.186 0-2.15.964-2.15 2.15v9.45h15.3V6.85c0-1.186-.964-2.15-2.15-2.15h-11ZM2.85 6.85A3.652 3.652 0 0 1 6.5 3.2h11a3.652 3.652 0 0 1 3.65 3.65V17.8H2.85V6.85Z" clip-rule="evenodd"/>
  <path fill="#000" fill-rule="evenodd" d="M3.5 17.8c-.386 0-.75.364-.75.75s.364.75.75.75h17c.386 0 .75-.364.75-.75s-.364-.75-.75-.75h-17Zm-2.25.75c0-1.214 1.036-2.25 2.25-2.25h17c1.214 0 2.25 1.036 2.25 2.25s-1.036 2.25-2.25 2.25h-17c-1.214 0-2.25-1.036-2.25-2.25Z" clip-rule="evenodd"/>
  <path fill="#fff" fill-rule="evenodd" d="M13.288 8.502a.75.75 0 0 1 1.06.036l1.393 1.492c.264.27.434.625.434 1.02 0 .4-.174.76-.445 1.03l-1.4 1.4a.75.75 0 0 1-1.06-1.06l1.37-1.37-1.388-1.488a.75.75 0 0 1 .036-1.06Zm-2.658.018a.75.75 0 0 1 0 1.06l-1.37 1.37 1.388 1.488a.75.75 0 0 1-1.096 1.024L8.159 11.97a1.453 1.453 0 0 1-.434-1.02c0-.4.174-.76.445-1.03l1.4-1.4a.75.75 0 0 1 1.06 0Z" clip-rule="evenodd"/>
</svg>
